Adwaita++-Light/panel/16/btsync-gui-7.svg

<svg height="16" width="16" xmlns="http://www.w3.org/2000/svg">
  <path d="m14.76148 6.1882662c-1.000529-3.7340272-4.8391854-5.95027667-8.5732134-4.949747-3.7340277 1.0005296-5.95027761 4.8391868-4.9497477 8.5732141 1.0005305 3.7340277 4.8391869 5.9502777 8.5732155 4.9497467 3.7340266-1.000529 5.9502766-4.8391855 4.9497456-8.5732138zm-1.931851.5176386c.626084 2.3365771-.510743 4.7305492-2.59539 5.7686902l.284601 1.062139-3.4154155-1.155392 2.380139-2.7083095.2113015.7885875c1.016258-.7000038 1.540545-1.9780164 1.202913-3.2380768-.185884-.6888729-.611208-1.2889401-1.1996302-1.6924963l.5344482-1.9974008c1.279324.6375879 2.224595 1.7922303 2.597033 3.1722587zm-3.9330535-3.0872463-2.3801393 2.7083089-.211302-.788588c-1.0162588.7000031-1.5405437 1.9780169-1.2029122 3.2380783.1858838.6888714.6112081 1.2889393 1.1996299 1.6924973l-.534448 1.997399c-1.2793244-.637588-2.224565-1.792239-2.597033-3.1722587-.626085-2.3365778.5107431-4.7305492 2.5953881-5.7686902l-.284599-1.0621409z" fill="#444"/>
</svg>

<svg xmlns="http://www.w3.org/2000/svg" width="16" height="16" version="1.1">
 <defs>
  <style id="current-color-scheme" type="text/css">
   .ColorScheme-Text { color:#444444; } .ColorScheme-Highlight { color:#4285f4; }
  </style>
 </defs>
 <path style="fill:currentColor" class="ColorScheme-Text" d="M 14.76148,6.1882662 C 13.760951,2.454239 9.9222946,0.23798953 6.1882666,1.2385192 2.4542389,2.2390488 0.23798899,6.077706 1.2385189,9.8117333 2.2390494,13.545761 6.0777058,15.762011 9.8117344,14.76148 13.545761,13.760951 15.762011,9.9222945 14.76148,6.1882662 Z m -1.931851,0.5176386 c 0.626084,2.3365771 -0.510743,4.7305492 -2.59539,5.7686902 L 10.51884,13.536734 7.1034245,12.381342 9.4835635,9.6730325 9.694865,10.46162 C 10.711123,9.7616162 11.23541,8.4836036 10.897778,7.2235432 10.711894,6.5346703 10.28657,5.9346031 9.6981478,5.5310469 L 10.232596,3.5336461 c 1.279324,0.6375879 2.224595,1.7922303 2.597033,3.1722587 z M 8.8965755,3.6186585 6.5164362,6.3269674 6.3051342,5.5383794 C 5.2888754,6.2383825 4.7645905,7.5163963 5.102222,8.7764577 5.2881058,9.4653291 5.7134301,10.065397 6.3018519,10.468955 l -0.534448,1.997399 C 4.4880795,11.828766 3.5428389,10.674115 3.1703709,9.2940953 2.5442859,6.9575175 3.681114,4.5635461 5.765759,3.5254051 L 5.48116,2.4632642 8.8965755,3.6186585 Z"/>
</svg>
